packages/token-projects/images/lp_gst.svg

<svg width="861" height="863" xmlns="http://www.w3.org/2000/svg" xmlns:xlink="http://www.w3.org/1999/xlink" xml:space="preserve" overflow="hidden"><defs><clipPath id="clip0"><rect x="2150" y="1398" width="861" height="863"/></clipPath><clipPath id="clip1"><rect x="2387" y="1981" width="160" height="162"/></clipPath><clipPath id="clip2"><rect x="2387" y="1981" width="160" height="162"/></clipPath><clipPath id="clip3"><rect x="2387" y="1981" width="160" height="162"/></clipPath><clipPath id="clip4"><rect x="2620" y="1981" width="160" height="162"/></clipPath><clipPath id="clip5"><rect x="2620" y="1981" width="160" height="162"/></clipPath><clipPath id="clip6"><rect x="2620" y="1981" width="160" height="162"/></clipPath><clipPath id="clip7"><rect x="2465" y="2096" width="87" height="69"/></clipPath><clipPath id="clip8"><rect x="2465" y="2096" width="87" height="69"/></clipPath><clipPath id="clip9"><rect x="2465" y="2096" width="87" height="69"/></clipPath><linearGradient x1="78.7125" y1="-8.16943" x2="30.8004" y2="83.6014" gradientUnits="userSpaceOnUse" spreadMethod="pad" id="fill10"><stop offset="0" stop-color="#00FFA3"/><stop offset="1" stop-color="#DC1FFF"/></linearGradient><linearGradient x1="57.7627" y1="-19.1069" x2="9.85065" y2="72.6639" gradientUnits="userSpaceOnUse" spreadMethod="pad" id="fill11"><stop offset="0" stop-color="#00FFA3"/><stop offset="1" stop-color="#DC1FFF"/></linearGradient><linearGradient x1="68.1709" y1="-13.6731" x2="20.2588" y2="78.0979" gradientUnits="userSpaceOnUse" spreadMethod="pad" id="fill12"><stop offset="0" stop-color="#00FFA3"/><stop offset="1" stop-color="#DC1FFF"/></linearGradient><clipPath id="clip13"><rect x="2701" y="2082" width="88" height="87"/></clipPath><clipPath id="clip14"><rect x="2701" y="2082" width="88" height="87"/></clipPath><clipPath id="clip15"><rect x="2701" y="2082" width="88" height="87"/></clipPath></defs><g clip-path="url(#clip0)" transform="translate(-2150 -1398)"><path d="M2862.29 1546.87C2787.02 1471.51 2686.96 1430 2580.51 1430 2474.06 1430 2373.98 1471.51 2298.71 1546.87 2223.44 1622.23 2182 1722.44 2182 1829 2182 1935.56 2223.46 2035.77 2298.71 2111.13 2373.96 2186.49 2474.04 2228 2580.49 2228 2686.94 2228 2787.01 2186.49 2862.28 2111.13 2937.54 2035.77 2979 1935.58 2979 1829 2979 1722.42 2937.56 1622.23 2862.29 1546.87Z" fill-rule="evenodd"/><path d="M2580.5 2261C2465.51 2261 2357.41 2216.12 2276.09 2134.62 2194.77 2053.11 2150 1944.76 2150 1829.5 2150 1714.24 2194.77 1605.89 2276.09 1524.38 2357.41 1442.88 2465.51 1398 2580.5 1398 2695.49 1398 2803.6 1442.88 2884.91 1524.38 2966.23 1605.89 3011 1714.24 3011 1829.5 3011 1944.76 2966.23 2053.11 2884.91 2134.62 2803.6 2216.12 2695.49 2261 2580.5 2261ZM2580.5 1430.39C2474.13 1430.39 2374.15 1471.91 2298.94 1547.3 2223.73 1622.68 2182.3 1722.9 2182.3 1829.5 2182.3 1936.1 2223.73 2036.33 2298.92 2111.72 2374.12 2187.1 2474.12 2228.62 2580.48 2228.62 2686.85 2228.62 2786.84 2187.1 2862.05 2111.72 2937.26 2036.33 2978.68 1936.11 2978.68 1829.5 2978.68 1722.89 2937.26 1622.67 2862.05 1547.28 2786.84 1471.9 2686.85 1430.39 2580.5 1430.39Z" fill="#FFFFFF" fill-rule="evenodd"/><g clip-path="url(#clip1)"><g clip-path="url(#clip2)"><g clip-path="url(#clip3)"><path d="M152.551 77.6253C152.551 119.671 118.466 153.757 76.4197 153.757 34.3735 153.757 0.288313 119.671 0.288313 77.6253 0.288313 35.5791 34.3735 1.49386 76.4197 1.49386 118.466 1.49386 152.551 35.5791 152.551 77.6253Z" stroke="#ABA3B1" stroke-width="6.54415" stroke-linecap="round" stroke-linejoin="round" fill="#ABA3B1" transform="matrix(1 0 0 1.00257 2390.17 1984.18)"/><path d="M112.291 91.9033C106.663 89.6522 103.895 88.3389 101.598 90.4965 102.771 88.152 102.302 88.011 101.318 86.2748 99.3472 82.8055 94.1369 77.1231 92.3357 66.2795 93.8811 62.1984 94.9588 57.9554 95.5484 53.6316 95.5484 53.6316 96.6494 50.5314 91.832 52.0475 86.4639 53.244 80.8428 52.4145 76.049 49.7188 67.8954 45.1881 67.1635 39.3029 64.811 37.996 63.1762 37.093 58.3429 42.1433 58.3429 42.1433L42.4586 60.6558 41.2372 62.9385C40.7095 63.9187 40.8004 65.1163 41.4701 66.0055 45.9944 72.0348 64.8269 97.1484 73.733 107.867 78.0398 110.622 82.8877 112.421 87.9492 113.142L112.326 113.367C115.512 113.209 118.36 112.966 120.632 112.713 122.139 112.547 123.426 111.547 123.959 110.127 126.547 103.192 122.417 95.954 112.291 91.9033Z" stroke="#000000" stroke-width="6.54415" stroke-linecap="round" stroke-linejoin="round" fill="none" fill-rule="evenodd" transform="matrix(1 0 0 1.00257 2390.17 1984.18)"/><path d="M103.187 132.353C77.1152 145.101 45.6697 137.66 28.0744 114.582 10.4792 91.5009 11.6309 59.2094 30.8277 37.4447 50.0245 15.6784 81.9199 10.4998 107.016 25.074 132.114 39.6483 143.423 69.9183 134.034 97.3781M89.2245 113.37 49.0122 113.37M65.2578 100.296 38.9956 100.296M54.9544 87.295 30.701 87.295M45.6586 74.2003 26.6788 74.2003" stroke="#000000" stroke-width="6.54415" stroke-linecap="round" stroke-linejoin="round" fill="none" fill-rule="evenodd" transform="matrix(1 0 0 1.00257 2390.17 1984.18)"/><path d="M70.1512 63.0637 78.1005 74.5773 70.4744 75.5278 78.2874 86.8055" stroke="#000000" stroke-width="6.54415" stroke-linecap="round" stroke-linejoin="round" fill="none" fill-rule="evenodd" transform="matrix(1 0 0 1.00257 2390.17 1984.18)"/></g></g></g><g clip-path="url(#clip4)"><g clip-path="url(#clip5)"><g clip-path="url(#clip6)"><path d="M152.551 77.6253C152.551 119.671 118.466 153.757 76.4197 153.757 34.3735 153.757 0.288313 119.671 0.288313 77.6253 0.288313 35.5791 34.3735 1.49386 76.4197 1.49386 118.466 1.49386 152.551 35.5791 152.551 77.6253Z" stroke="#ABA3B1" stroke-width="6.54415" stroke-linecap="round" stroke-linejoin="round" fill="#ABA3B1" transform="matrix(1 0 0 1.00257 2623.17 1984.18)"/><path d="M112.291 91.9033C106.663 89.6522 103.895 88.3389 101.598 90.4965 102.771 88.152 102.302 88.011 101.318 86.2748 99.3472 82.8055 94.1369 77.1231 92.3357 66.2795 93.8811 62.1984 94.9588 57.9554 95.5484 53.6316 95.5484 53.6316 96.6494 50.5314 91.832 52.0475 86.4639 53.244 80.8428 52.4145 76.049 49.7188 67.8954 45.1881 67.1635 39.3029 64.811 37.996 63.1762 37.093 58.3429 42.1433 58.3429 42.1433L42.4586 60.6558 41.2372 62.9385C40.7095 63.9187 40.8004 65.1163 41.4701 66.0055 45.9944 72.0348 64.8269 97.1484 73.733 107.867 78.0398 110.622 82.8877 112.421 87.9492 113.142L112.326 113.367C115.512 113.209 118.36 112.966 120.632 112.713 122.139 112.547 123.426 111.547 123.959 110.127 126.547 103.192 122.417 95.954 112.291 91.9033Z" stroke="#000000" stroke-width="6.54415" stroke-linecap="round" stroke-linejoin="round" fill="none" fill-rule="evenodd" transform="matrix(1 0 0 1.00257 2623.17 1984.18)"/><path d="M103.187 132.353C77.1152 145.101 45.6697 137.66 28.0744 114.582 10.4792 91.5009 11.6309 59.2094 30.8277 37.4447 50.0245 15.6784 81.9199 10.4998 107.016 25.074 132.114 39.6483 143.423 69.9183 134.034 97.3781M89.2245 113.37 49.0122 113.37M65.2578 100.296 38.9956 100.296M54.9544 87.295 30.701 87.295M45.6586 74.2003 26.6788 74.2003" stroke="#000000" stroke-width="6.54415" stroke-linecap="round" stroke-linejoin="round" fill="none" fill-rule="evenodd" transform="matrix(1 0 0 1.00257 2623.17 1984.18)"/><path d="M70.1512 63.0637 78.1005 74.5773 70.4744 75.5278 78.2874 86.8055" stroke="#000000" stroke-width="6.54415" stroke-linecap="round" stroke-linejoin="round" fill="none" fill-rule="evenodd" transform="matrix(1 0 0 1.00257 2623.17 1984.18)"/></g></g></g><path d="M2669.79 1895.01C2656.8 1895.01 2643.82 1892.36 2631.69 1887.04 2607.06 1876.23 2588.13 1855.39 2579.76 1829.85L2576.56 1820.09 2573.36 1829.85C2564.99 1855.39 2546.06 1876.23 2521.43 1887.05 2496.8 1897.85 2468.63 1897.68 2444.14 1886.56L2409.67 1870.91C2391.63 1862.73 2380.04 1844.76 2380.04 1824.97L2380.04 1698.34C2380.04 1688.89 2386.85 1680.82 2396.16 1679.22 2450.56 1669.84 2512.94 1664.87 2576.56 1664.87 2597.36 1664.87 2618.02 1665.4 2638.3 1666.43 2659.82 1667.54 2676.1 1686.35 2674.24 1707.81 2642.7 1705.09 2609.84 1703.7 2576.56 1703.7 2521.34 1703.7 2467.23 1707.55 2418.9 1714.87L2418.9 1824.99C2418.9 1829.55 2421.57 1833.7 2425.74 1835.59L2458.7 1850.58C2473.48 1857.28 2490.57 1858.13 2505.48 1851.68 2520.37 1845.24 2531.36 1833.21 2536.41 1817.82L2542.93 1797.91C2547.68 1783.4 2560.93 1772.86 2576.21 1772.74 2591.75 1772.6 2604.95 1782.08 2609.77 1796.8L2616.15 1816.26C2621.22 1831.68 2632.13 1844.8 2646.95 1851.42 2661.77 1858.04 2678.11 1857.99 2692.86 1851.28L2727.33 1835.63C2731.5 1833.73 2734.17 1829.59 2734.17 1825.02L2734.17 1552.03 2773.04 1552.03 2773.04 1824.93C2773.04 1844.73 2761.46 1862.69 2743.42 1870.88L2708.94 1886.53C2696.57 1892.18 2683.19 1895.01 2669.79 1895.01Z" fill="#FFFFFF" fill-rule="evenodd"/><g clip-path="url(#clip7)"><g clip-path="url(#clip8)"><g clip-path="url(#clip9)"><path d="M14.0901 51.8892C14.6136 51.3657 15.3334 51.0603 16.0968 51.0603L85.3259 51.0603C86.591 51.0603 87.2235 52.5871 86.3293 53.4814L72.6535 67.1571C72.1301 67.6806 71.4103 67.9859 70.6469 67.9859L1.41774 67.9859C0.152679 67.9859-0.479849 66.4591 0.414415 65.5649L14.0901 51.8892Z" fill="url(#fill10)" transform="matrix(1.00295 0 0 1 2465 2097.01)"/><path d="M14.0901 0.828831C14.6354 0.305359 15.3552 0 16.0968 0L85.3259 0C86.591 0 87.2235 1.52679 86.3293 2.42106L72.6535 16.0968C72.1301 16.6202 71.4103 16.9256 70.6469 16.9256L1.41774 16.9256C0.152679 16.9256-0.479849 15.3988 0.414415 14.5045L14.0901 0.828831Z" fill="url(#fill11)" transform="matrix(1.00295 0 0 1 2465 2097.01)"/><path d="M72.6535 26.1954C72.1301 25.6719 71.4103 25.3666 70.6469 25.3666L1.41774 25.3666C0.152679 25.3666-0.479849 26.8934 0.414415 27.7876L14.0901 41.4633C14.6136 41.9868 15.3334 42.2922 16.0968 42.2922L85.3259 42.2922C86.591 42.2922 87.2235 40.7654 86.3293 39.8711L72.6535 26.1954Z" fill="url(#fill12)" transform="matrix(1.00295 0 0 1 2465 2097.01)"/></g></g></g><g clip-path="url(#clip13)"><g clip-path="url(#clip14)"><g clip-path="url(#clip15)"><path d="M26.298 36.1377 42.9998 19.4359 59.7095 36.1449 69.4275 26.427 42.9998 0 16.5807 26.4191 26.2983 36.137M0 42.9998 9.7183 33.2801 19.4359 42.9977 9.71761 52.716ZM26.298 49.8629 42.9998 66.5637 59.7092 49.855 69.4323 59.5678 69.4275 59.573 42.9998 85.9996 16.5807 59.5805 16.567 59.5668 26.299 49.8619M66.5637 43.0039 76.282 33.2856 85.9996 43.0032 76.2816 52.7215Z" fill="#F3BA2F" transform="matrix(1.01163 0 0 1 2702 2082)"/><path d="M52.856 42.9946 52.8602 42.9946 42.9998 33.1336 35.7115 40.4198 35.7115 40.4198 34.8742 41.2574 33.1473 42.9847 33.1336 42.9981 33.1473 43.0122 42.9998 52.866 52.8609 43.005 52.8657 42.9995 52.8567 42.9946" fill="#F3BA2F" transform="matrix(1.01163 0 0 1 2702 2082)"/></g></g></g></g></svg>

<svg width="861" height="863" xmlns="http://www.w3.org/2000/svg" xml:space="preserve" overflow="hidden"><defs><clipPath id="a"><path d="M2150 1398h861v863h-861z"/></clipPath><clipPath id="b"><path d="M2387 1981h160v162h-160z"/></clipPath><clipPath id="c"><path d="M2387 1981h160v162h-160z"/></clipPath><clipPath id="d"><path d="M2387 1981h160v162h-160z"/></clipPath><clipPath id="e"><path d="M2620 1981h160v162h-160z"/></clipPath><clipPath id="f"><path d="M2620 1981h160v162h-160z"/></clipPath><clipPath id="g"><path d="M2620 1981h160v162h-160z"/></clipPath><clipPath id="h"><path d="M2465 2096h87v69h-87z"/></clipPath><clipPath id="i"><path d="M2465 2096h87v69h-87z"/></clipPath><clipPath id="j"><path d="M2465 2096h87v69h-87z"/></clipPath><clipPath id="n"><path d="M2701 2082h88v87h-88z"/></clipPath><clipPath id="o"><path d="M2701 2082h88v87h-88z"/></clipPath><clipPath id="p"><path d="M2701 2082h88v87h-88z"/></clipPath><linearGradient x1="78.713" y1="-8.169" x2="30.8" y2="83.601" gradientUnits="userSpaceOnUse" spreadMethod="pad" id="k"><stop offset="0" stop-color="#00FFA3"/><stop offset="1" stop-color="#DC1FFF"/></linearGradient><linearGradient x1="57.763" y1="-19.107" x2="9.851" y2="72.664" gradientUnits="userSpaceOnUse" spreadMethod="pad" id="l"><stop offset="0" stop-color="#00FFA3"/><stop offset="1" stop-color="#DC1FFF"/></linearGradient><linearGradient x1="68.171" y1="-13.673" x2="20.259" y2="78.098" gradientUnits="userSpaceOnUse" spreadMethod="pad" id="m"><stop offset="0" stop-color="#00FFA3"/><stop offset="1" stop-color="#DC1FFF"/></linearGradient></defs><g clip-path="url(#a)" transform="translate(-2150 -1398)"><path d="M2862.29 1546.87c-75.27-75.36-175.33-116.87-281.78-116.87-106.45 0-206.53 41.51-281.8 116.87C2223.44 1622.23 2182 1722.44 2182 1829s41.46 206.77 116.71 282.13c75.25 75.36 175.33 116.87 281.78 116.87 106.45 0 206.52-41.51 281.79-116.87C2937.54 2035.77 2979 1935.58 2979 1829c0-106.58-41.44-206.77-116.71-282.13Z" fill-rule="evenodd"/><path d="M2580.5 2261c-114.99 0-223.09-44.88-304.41-126.38-81.32-81.51-126.09-189.86-126.09-305.12 0-115.26 44.77-223.61 126.09-305.12 81.32-81.5 189.42-126.38 304.41-126.38 114.99 0 223.1 44.88 304.41 126.38 81.32 81.51 126.09 189.86 126.09 305.12 0 115.26-44.77 223.61-126.09 305.12-81.31 81.5-189.42 126.38-304.41 126.38Zm0-830.61c-106.37 0-206.35 41.52-281.56 116.91-75.21 75.38-116.64 175.6-116.64 282.2s41.43 206.83 116.62 282.22c75.2 75.38 175.2 116.9 281.56 116.9 106.37 0 206.36-41.52 281.57-116.9 75.21-75.39 116.63-175.61 116.63-282.22 0-106.61-41.42-206.83-116.63-282.22-75.21-75.38-175.2-116.89-281.55-116.89Z" fill="#FFF" fill-rule="evenodd"/><g clip-path="url(#b)"><g clip-path="url(#c)"><g clip-path="url(#d)" stroke-width="6.544" stroke-linecap="round" stroke-linejoin="round"><path d="M152.551 77.625c0 42.046-34.085 76.132-76.131 76.132-42.047 0-76.132-34.086-76.132-76.132C.288 35.58 34.374 1.494 76.42 1.494c42.046 0 76.131 34.085 76.131 76.131Z" stroke="#ABA3B1" fill="#ABA3B1" transform="matrix(1 0 0 1.00257 2390.17 1984.18)"/><path d="M112.291 91.903c-5.628-2.25-8.396-3.564-10.693-1.407 1.173-2.344.704-2.485-.28-4.221-1.97-3.47-7.181-9.152-8.982-19.996a57.747 57.747 0 0 0 3.212-12.647s1.101-3.1-3.716-1.584a22.302 22.302 0 0 1-15.783-2.33c-8.154-4.53-8.886-10.415-11.238-11.722-1.635-.903-6.468 4.147-6.468 4.147L42.459 60.656l-1.222 2.282a2.851 2.851 0 0 0 .233 3.067c4.524 6.03 23.357 31.143 32.263 41.862a35.734 35.734 0 0 0 14.216 5.275l24.377.225c3.186-.158 6.034-.401 8.306-.654a4.025 4.025 0 0 0 3.327-2.586c2.588-6.935-1.542-14.173-11.668-18.224Z" stroke="#000" fill="none" transform="matrix(1 0 0 1.00257 2390.17 1984.18)"/><path d="M103.187 132.353c-26.072 12.748-57.517 5.307-75.113-17.771-17.595-23.081-16.443-55.373 2.754-77.137C50.025 15.678 81.92 10.5 107.016 25.074c25.098 14.574 36.407 44.844 27.018 72.304m-44.81 15.992H49.013m16.246-13.074H38.996m15.958-13.001H30.701M45.659 74.2h-18.98" stroke="#000" fill="none" transform="matrix(1 0 0 1.00257 2390.17 1984.18)"/><path d="m70.151 63.064 7.95 11.513-7.627.95 7.813 11.278" stroke="#000" fill="none" transform="matrix(1 0 0 1.00257 2390.17 1984.18)"/></g></g></g><g clip-path="url(#e)"><g clip-path="url(#f)"><g clip-path="url(#g)" stroke-width="6.544" stroke-linecap="round" stroke-linejoin="round"><path d="M152.551 77.625c0 42.046-34.085 76.132-76.131 76.132-42.047 0-76.132-34.086-76.132-76.132C.288 35.58 34.374 1.494 76.42 1.494c42.046 0 76.131 34.085 76.131 76.131Z" stroke="#ABA3B1" fill="#ABA3B1" transform="matrix(1 0 0 1.00257 2623.17 1984.18)"/><path d="M112.291 91.903c-5.628-2.25-8.396-3.564-10.693-1.407 1.173-2.344.704-2.485-.28-4.221-1.97-3.47-7.181-9.152-8.982-19.996a57.747 57.747 0 0 0 3.212-12.647s1.101-3.1-3.716-1.584a22.302 22.302 0 0 1-15.783-2.33c-8.154-4.53-8.886-10.415-11.238-11.722-1.635-.903-6.468 4.147-6.468 4.147L42.459 60.656l-1.222 2.282a2.851 2.851 0 0 0 .233 3.067c4.524 6.03 23.357 31.143 32.263 41.862a35.734 35.734 0 0 0 14.216 5.275l24.377.225c3.186-.158 6.034-.401 8.306-.654a4.025 4.025 0 0 0 3.327-2.586c2.588-6.935-1.542-14.173-11.668-18.224Z" stroke="#000" fill="none" transform="matrix(1 0 0 1.00257 2623.17 1984.18)"/><path d="M103.187 132.353c-26.072 12.748-57.517 5.307-75.113-17.771-17.595-23.081-16.443-55.373 2.754-77.137C50.025 15.678 81.92 10.5 107.016 25.074c25.098 14.574 36.407 44.844 27.018 72.304m-44.81 15.992H49.013m16.246-13.074H38.996m15.958-13.001H30.701M45.659 74.2h-18.98" stroke="#000" fill="none" transform="matrix(1 0 0 1.00257 2623.17 1984.18)"/><path d="m70.151 63.064 7.95 11.513-7.627.95 7.813 11.278" stroke="#000" fill="none" transform="matrix(1 0 0 1.00257 2623.17 1984.18)"/></g></g></g><path d="M2669.79 1895.01c-12.99 0-25.97-2.65-38.1-7.97-24.63-10.81-43.56-31.65-51.93-57.19l-3.2-9.76-3.2 9.76c-8.37 25.54-27.3 46.38-51.93 57.2-24.63 10.8-52.8 10.63-77.29-.49l-34.47-15.65c-18.04-8.18-29.63-26.15-29.63-45.94v-126.63c0-9.45 6.81-17.52 16.12-19.12 54.4-9.38 116.78-14.35 180.4-14.35 20.8 0 41.46.53 61.74 1.56 21.52 1.11 37.8 19.92 35.94 41.38-31.54-2.72-64.4-4.11-97.68-4.11-55.22 0-109.33 3.85-157.66 11.17v110.12c0 4.56 2.67 8.71 6.84 10.6l32.96 14.99c14.78 6.7 31.87 7.55 46.78 1.1 14.89-6.44 25.88-18.47 30.93-33.86l6.52-19.91c4.75-14.51 18-25.05 33.28-25.17 15.54-.14 28.74 9.34 33.56 24.06l6.38 19.46c5.07 15.42 15.98 28.54 30.8 35.16 14.82 6.62 31.16 6.57 45.91-.14l34.47-15.65c4.17-1.9 6.84-6.04 6.84-10.61v-272.99h38.87v272.9c0 19.8-11.58 37.76-29.62 45.95l-34.48 15.65c-12.37 5.65-25.75 8.48-39.15 8.48Z" fill="#FFF" fill-rule="evenodd"/><g clip-path="url(#h)"><g clip-path="url(#i)"><g clip-path="url(#j)"><path d="M14.09 51.89a2.838 2.838 0 0 1 2.007-.83h69.229c1.265 0 1.898 1.527 1.003 2.421L72.654 67.157a2.838 2.838 0 0 1-2.007.829H1.417c-1.264 0-1.897-1.527-1.003-2.421L14.09 51.889Z" fill="url(#k)" transform="matrix(1.00295 0 0 1 2465 2097.01)"/><path d="M14.09.829A2.917 2.917 0 0 1 16.097 0h69.229c1.265 0 1.898 1.527 1.003 2.421L72.654 16.097a2.838 2.838 0 0 1-2.007.829H1.417c-1.264 0-1.897-1.527-1.003-2.421L14.09.829Z" fill="url(#l)" transform="matrix(1.00295 0 0 1 2465 2097.01)"/><path d="M72.653 26.195a2.838 2.838 0 0 0-2.006-.828H1.417c-1.264 0-1.897 1.526-1.003 2.42L14.09 41.464a2.838 2.838 0 0 0 2.007.83h69.229c1.265 0 1.898-1.528 1.003-2.422L72.654 26.195Z" fill="url(#m)" transform="matrix(1.00295 0 0 1 2465 2097.01)"/></g></g></g><g clip-path="url(#n)"><g clip-path="url(#o)"><g clip-path="url(#p)" fill="#F3BA2F"><path d="m2728.604 2118.138 16.896-16.702 16.904 16.709 9.83-9.718L2745.5 2082l-26.726 26.42 9.83 9.717M2702 2125l9.831-9.72 9.83 9.718-9.83 9.718Zm26.604 6.863 16.896 16.7 16.904-16.708 9.836 9.713-.005.005L2745.5 2168l-26.726-26.42-.014-.013 9.845-9.705m40.733-6.858 9.831-9.718 9.83 9.717-9.83 9.718Z"/><path d="M2755.47 2124.995h.005l-9.975-9.861-7.373 7.286-.847.837-1.747 1.728-.014.013.014.014 9.967 9.854 9.976-9.861.005-.006-.01-.004"/></g></g></g></g></svg>
